X:2
T:Dancing in the Rain
C:David James
D:"The Lone Man's Path," David James
H:Inspired for a Summer night with my Sweetheart in the back yard.
More tunes, stuff, on tiompanalley.com website
L:1/8
M:4/4
R:Reel
K:EDor
EFGA B2AF | GEFD B,E (3EEE | DF (3FFF AFAB | AFBF AFCD |
EFGA B2AF | GEFD B,E (3EEE | DFAF GDFD | (3EFG FD B,E (3EEE :|
|: Bdef e2 (3def | gagf edBA | B2 (3=cBA FAdA | dfed edBA |
(3Bcd efe2ef | gagf edBA | fdec dBAF | (3EFG FD B,E (3EEE :|
